src/assets/images/icons/play-icon.svg

<svg width="40" height="39" viewBox="0 0 40 39" fill="none" xmlns="http://www.w3.org/2000/svg">
<path d="M20 0C8.95536 0 0 8.73147 0 19.5C0 30.2685 8.95536 39 20 39C31.0446 39 40 30.2685 40 19.5C40 8.73147 31.0446 0 20 0ZM26.433 19.8003L16.683 26.7167C16.6296 26.7542 16.5666 26.7766 16.5009 26.7814C16.4353 26.7862 16.3696 26.7732 16.311 26.744C16.2524 26.7148 16.2032 26.6703 16.1688 26.6156C16.1344 26.5609 16.1162 26.498 16.1161 26.4338V12.6097C16.1159 12.5454 16.1339 12.4823 16.1682 12.4274C16.2025 12.3725 16.2518 12.3279 16.3105 12.2986C16.3692 12.2693 16.4351 12.2564 16.5008 12.2614C16.5666 12.2664 16.6297 12.289 16.683 12.3268L26.433 19.2388C26.4791 19.2706 26.5167 19.3127 26.5426 19.3615C26.5685 19.4104 26.5821 19.4646 26.5821 19.5196C26.5821 19.5746 26.5685 19.6288 26.5426 19.6776C26.5167 19.7265 26.4791 19.7686 26.433 19.8003Z" fill="black"/>
</svg>

<svg width="40" height="39" fill="none" xmlns="http://www.w3.org/2000/svg"><path d="M20 0C8.955 0 0 8.731 0 19.5 0 30.268 8.955 39 20 39s20-8.732 20-19.5C40 8.731 31.045 0 20 0Zm6.433 19.8-9.75 6.917a.363.363 0 0 1-.514-.101.342.342 0 0 1-.053-.182V12.61a.342.342 0 0 1 .195-.311.365.365 0 0 1 .372.028l9.75 6.912a.347.347 0 0 1 .15.28.337.337 0 0 1-.15.281Z" fill="#000"/></svg>
